X: 25645
T: Martin Riley's
R: reel
M: 4/4
K: Gmajor
|:G2dB cAEA|DFAF GABG|Bdge dBG2|(3ABA cA BGAF|
G2dB cAEA|DFAF GABG|Bdge dBG2|(3ABA GA BGG2:|
|:B2dB eBdB|GABG ABGE|DGBd GBdg|edef gedc|
B2dB eBdB|GABG ABGE|DGBd GBdB|cBAc BGG2:|

